X: 6877
T: Charrada De Bercimuelle
R: three-two
M: 3/2
K: Gminor
M:5/8
|:D|GB d2 d|cd B3|GB ded|cd B2 G|
Bc B2 G|B/A/G F3|A/B/c B2 G|AF G2:|
D|GB c2 c|ce/d/ ccB|GA BBG|AB ccB|
GA BBG|AB c2 B|GA BBG|AB G3|G2 G3||
A/B/c B2 G|AG F3|A/B/c B2 G|AF G3|
G2 G3|A/B/c B2 G|AG F3|A/B/c B2 G|AF G2||

